!!!OTL: No_23_Dancing_Song_of_the_Bi'jîkiwûck'.krn
!!!REG: Great_Lakes
!!!LANG: Non-Tone
!!!LING_GROUP: Algonquin
!!!SOCIAL_FUNCTION: songs of war
**kern
*staff1
=1-
*clefF4
*k[b-e-]
*M2/4
8c\L
8c\J
8c\L
8c\J
=2
2c\
=3||
*M3/4
8G\L
8G\J
4G\
8G\L
8G\J
=4||
*M2/4
[2F\
=5
2F\]
=6
8B-\L
8B-\J
8B-\L
8B-\J
=7
2B-\
=8||
*M3/4
8B-\L
8B-\J
4G\
8G\L
8G\J
=9||
*M2/4
2F\
=10
8D\L
8D\J
8D\L
8F\J
=11
2F\
=12||
*M3/4
8F\L
8F\J
4D\
8D/L
8C/J
=13||
*M2/4
2C/
=14
8C/L
8C/J
8C/L
8C/J
=15
2C/
=16||
*M3/4
8C/L
8C/J
4BB-/
8GG/L
8GG/J
=17||
*M2/4
[2FF/
=18
2FF/]
=19
8c\L
8c\J
8c\L
8c\J
=20
2c\
=21
8G\L
8G\J
8G\L
8G\J
=22
4G\
8G\L
8G\J
=23
4G\
8F\L
8F\J
=24
[2F\
=25
2F\]
=26
8B-\L
8B-\J
8B-\L
8B-\J
=27
2B-\
=28||
*M3/4
8B-\L
8B-\J
4G\
8G\L
8G\J
=29||
*M2/4
2F\
=30
8G\L
8G\J
8G\L
8G\J
=31
2F\
=32
8D\L
8D\J
8C/L
8C/J
=33
2C/
=34||
*M3/4
8C/L
8C/J
4BB-/
8GG/L
8GG/J
=35||
*M2/4
[2FF/
=36
2FF/]
==
*-
